FINK
CUT[RUHT IHR WEICHEN SEELEN]
REG[Europa, Mitteleuropa, Deutschland]
KEY[F1043  08 Bb 4/4]
MEL[  1_.1-7_1_  2_.-71_
    23  4_.23_.1  3_2_.2#
    32  1_-7b_-6_-5_  -5_-4_
    2_.1  -7_1_2_-7_  1__0__ //] >>
FCT[Trost - Lied]
